src/assets/img/mail.svg

<svg width="48" height="46" viewBox="0 0 48 46" fill="none" xmlns="http://www.w3.org/2000/svg">
<path d="M10.7143 8.21436H37.2857C38.7088 8.21427 40.078 8.73605 41.1124 9.67267C42.1468 10.6093 42.768 11.8897 42.8486 13.2514L42.8571 13.5536V32.4465C42.8572 33.8103 42.3128 35.1224 41.3354 36.1137C40.3581 37.105 39.0219 37.7004 37.6011 37.7776L37.2857 37.7858H10.7143C9.29119 37.7859 7.922 37.2641 6.8876 36.3275C5.8532 35.3908 5.23199 34.1104 5.15142 32.7488L5.14285 32.4465V13.5536C5.14276 12.1898 5.68723 10.8777 6.66458 9.88641C7.64192 8.8951 8.97804 8.29978 10.3989 8.22257L10.7143 8.21436H37.2857H10.7143ZM40.2857 17.9154L24.5931 25.7354C24.4411 25.8111 24.2749 25.857 24.1041 25.8702C23.9334 25.8835 23.7616 25.8639 23.5989 25.8126L23.4069 25.7354L7.71428 17.9154V32.4465C7.71431 33.168 7.99743 33.8632 8.50745 34.3939C9.01746 34.9247 9.71708 35.2523 10.4674 35.3116L10.7143 35.3215H37.2857C38.0389 35.3214 38.7645 35.0499 39.3184 34.5608C39.8722 34.0717 40.2139 33.4008 40.2754 32.6814L40.2857 32.4465V17.9154V17.9154ZM37.2857 10.6786H10.7143C9.96138 10.6787 9.23602 10.95 8.68218 11.4388C8.12834 11.9275 7.78652 12.598 7.72457 13.3171L7.71428 13.5536V15.1374L24 23.2531L40.2857 15.1374V13.5536C40.2856 12.8319 40.0023 12.1365 39.4919 11.6057C38.9815 11.0749 38.2815 10.7475 37.5309 10.6885L37.2857 10.6786Z" fill="white"/>
</svg>

<svg width="48" height="46" fill="none" xmlns="http://www.w3.org/2000/svg"><path d="M10.714 8.214h26.572c1.423 0 2.792.522 3.826 1.459a5.249 5.249 0 0 1 1.737 3.578l.008.303v18.892a5.221 5.221 0 0 1-1.522 3.668 5.677 5.677 0 0 1-3.734 1.664l-.315.008H10.714a5.704 5.704 0 0 1-3.826-1.459A5.249 5.249 0 0 1 5.15 32.75l-.008-.303V13.555c0-1.364.544-2.676 1.522-3.668a5.676 5.676 0 0 1 3.734-1.663l.315-.009h26.572-26.572Zm29.572 9.701-15.693 7.82a1.327 1.327 0 0 1-.994.078l-.192-.078-15.693-7.82v14.532c0 .721.283 1.416.793 1.947.51.53 1.21.858 1.96.918l.247.01h26.572c.753 0 1.478-.272 2.032-.761.554-.49.896-1.16.957-1.88l.01-.234V17.915Zm-3-7.236H10.714c-.753 0-1.478.271-2.032.76a2.831 2.831 0 0 0-.957 1.878l-.01.237v1.583L24 23.253l16.286-8.116v-1.583a2.81 2.81 0 0 0-.794-1.948 3.052 3.052 0 0 0-1.961-.918l-.245-.01Z" fill="#fff"/></svg>
